src/Assets/icon/icon_file.svg

<svg fill="none" height="24" viewBox="0 0 24 24" width="24" xmlns="http://www.w3.org/2000/svg"><g fill="#fff"><path d="m14 3h-9c-.53043 0-1.03914.21071-1.41421.58579-.37508.37507-.58579.88378-.58579 1.41421v9c0 .5304.21071 1.0391.58579 1.4142.37507.3751.88378.5858 1.41421.5858h9c.5304 0 1.0391-.2107 1.4142-.5858s.5858-.8838.5858-1.4142v-9c0-.53043-.2107-1.03914-.5858-1.41421-.3751-.37508-.8838-.58579-1.4142-.58579z"/><path d="m21 19v-9c0-.53043-.2107-1.03914-.5858-1.41421-.3751-.37508-.8838-.58579-1.4142-.58579h-1v8c0 .5304-.2107 1.0391-.5858 1.4142s-.8838.5858-1.4142.5858h-8v1c0 .5304.21071 1.0391.58579 1.4142.37507.3751.88378.5858 1.41421.5858h9c.5304 0 1.0391-.2107 1.4142-.5858s.5858-.8838.5858-1.4142z"/></g></svg>

<svg width="24" height="24" viewBox="0 0 24 24" fill="none" xmlns="http://www.w3.org/2000/svg">
<path d="M14 3H5C4.46957 3 3.96086 3.21071 3.58579 3.58579C3.21071 3.96086 3 4.46957 3 5V14C3 14.5304 3.21071 15.0391 3.58579 15.4142C3.96086 15.7893 4.46957 16 5 16H14C14.5304 16 15.0391 15.7893 15.4142 15.4142C15.7893 15.0391 16 14.5304 16 14V5C16 4.46957 15.7893 3.96086 15.4142 3.58579C15.0391 3.21071 14.5304 3 14 3Z" fill="white"/>
<path d="M21 19V10C21 9.46957 20.7893 8.96086 20.4142 8.58579C20.0391 8.21071 19.5304 8 19 8H18V16C18 16.5304 17.7893 17.0391 17.4142 17.4142C17.0391 17.7893 16.5304 18 16 18H8V19C8 19.5304 8.21071 20.0391 8.58579 20.4142C8.96086 20.7893 9.46957 21 10 21H19C19.5304 21 20.0391 20.7893 20.4142 20.4142C20.7893 20.0391 21 19.5304 21 19Z" fill="white"/>
</svg>
